tools/download-figma-icons/icons/solid/connector-type3.svg

<svg width="24" height="24" viewBox="0 0 24 24" fill="none" xmlns="http://www.w3.org/2000/svg">
<path d="M12.75 0V2.21596C12.75 2.62911 12.4125 2.96714 12 2.96714C11.5875 2.96714 11.25 2.62911 11.25 2.21596V0C7.05 0.375587 3.75 3.95117 3.75 8.28545V15.677C3.75 20.2667 7.4475 24 12 24C16.5525 24 20.25 20.2667 20.25 15.677V8.28545C20.25 3.95117 16.95 0.375587 12.75 0ZM15.7125 5.27324C16.11 5.27324 16.4325 5.59624 16.4325 5.99437C16.4325 6.39249 16.11 6.723 15.7125 6.723C15.315 6.723 14.9925 6.4 14.9925 5.99437C14.9925 5.58873 15.315 5.27324 15.7125 5.27324ZM8.265 5.27324C8.6625 5.27324 8.985 5.59624 8.985 5.99437C8.985 6.39249 8.6625 6.723 8.265 6.723C7.8675 6.723 7.545 6.4 7.545 5.99437C7.545 5.58873 7.8675 5.27324 8.265 5.27324ZM8.28 17.2394C7.455 17.2394 6.7875 16.5634 6.7875 15.7371C6.7875 14.9108 7.455 14.2347 8.28 14.2347C9.105 14.2347 9.765 14.9108 9.765 15.7371C9.765 16.5634 9.0975 17.2394 8.28 17.2394ZM8.28 11.9812C7.455 11.9812 6.7875 11.3052 6.7875 10.4789C6.7875 9.65258 7.455 8.97653 8.28 8.97653C9.105 8.97653 9.765 9.65258 9.765 10.4789C9.765 11.3052 9.0975 11.9812 8.28 11.9812ZM12 20.9953C11.175 20.9953 10.5075 20.3192 10.5075 19.493C10.5075 18.6667 11.175 17.9906 12 17.9906C12.825 17.9906 13.4925 18.6667 13.4925 19.493C13.4925 20.3192 12.825 20.9953 12 20.9953ZM15.72 17.2394C14.9025 17.2394 14.235 16.5634 14.235 15.7371C14.235 14.9108 14.9025 14.2347 15.72 14.2347C16.5375 14.2347 17.2125 14.9108 17.2125 15.7371C17.2125 16.5634 16.545 17.2394 15.72 17.2394ZM15.72 11.9812C14.9025 11.9812 14.235 11.3052 14.235 10.4789C14.235 9.65258 14.9025 8.97653 15.72 8.97653C16.5375 8.97653 17.2125 9.65258 17.2125 10.4789C17.2125 11.3052 16.545 11.9812 15.72 11.9812Z" fill="black"/>
</svg>

<svg xmlns="http://www.w3.org/2000/svg" width="24" height="24" fill="none" viewBox="0 0 24 24"><path fill="currentColor" d="M12.75 0v2.216a.753.753 0 0 1-.75.751.753.753 0 0 1-.75-.751V0c-4.2.376-7.5 3.951-7.5 8.285v7.392C3.75 20.267 7.448 24 12 24s8.25-3.733 8.25-8.323V8.285c0-4.334-3.3-7.91-7.5-8.285m2.963 5.273a.72.72 0 0 1 .72.721.727.727 0 0 1-.72.729.72.72 0 0 1-.72-.729c0-.405.322-.72.72-.72m-7.448 0a.72.72 0 0 1 .72.721.727.727 0 0 1-.72.729.72.72 0 0 1-.72-.729c0-.405.322-.72.72-.72M8.28 17.24a1.5 1.5 0 0 1-1.492-1.502 1.5 1.5 0 0 1 1.492-1.502c.825 0 1.485.676 1.485 1.502S9.097 17.24 8.28 17.24m0-5.258a1.5 1.5 0 0 1-1.492-1.502A1.5 1.5 0 0 1 8.28 8.977c.825 0 1.485.676 1.485 1.502S9.097 11.98 8.28 11.98M12 20.995a1.5 1.5 0 0 1-1.492-1.502A1.5 1.5 0 0 1 12 17.991a1.5 1.5 0 0 1 1.492 1.502A1.5 1.5 0 0 1 12 20.995m3.72-3.756a1.5 1.5 0 0 1-1.485-1.502c0-.826.668-1.502 1.485-1.502s1.492.676 1.492 1.502a1.5 1.5 0 0 1-1.492 1.502m0-5.258a1.5 1.5 0 0 1-1.485-1.502c0-.826.668-1.502 1.485-1.502s1.492.676 1.492 1.502a1.5 1.5 0 0 1-1.492 1.502"/></svg>
